picto/truck-left-framed.svg

<svg class="color-immutable" width="30" height="30" viewBox="0 0 30 30" fill="none" xmlns="http://www.w3.org/2000/svg"><path d="M30.0021 0H0.0020752V30H30.0021V0Z" fill="#2D327D"/><path d="M25.5021 3C26.3271 3 27.0021 3.675 27.0021 4.5V25.5C27.0021 26.325 26.3271 27 25.5021 27H4.50208C3.67708 27 3.00208 26.325 3.00208 25.5V4.5C3.00208 3.675 3.67708 3 4.50208 3H25.5021ZM25.5021 2.625H4.50208C3.4682 2.625 2.62708 3.46613 2.62708 4.5V25.5C2.62708 26.5339 3.4682 27.375 4.50208 27.375H25.5021C26.536 27.375 27.3771 26.5339 27.3771 25.5V4.5C27.3771 3.46613 26.536 2.625 25.5021 2.625Z" fill="white"/><path d="M9.6001 21.675C9.6001 22.2465 9.80635 22.77 10.1491 23.175C10.5751 23.6798 11.2126 24 11.9251 24C12.6376 24 13.2751 23.6798 13.7011 23.175C14.0438 22.77 14.2501 22.2465 14.2501 21.675C14.2501 20.391 13.2091 19.35 11.9251 19.35C10.6411 19.35 9.6001 20.391 9.6001 21.675ZM10.7251 21.675C10.7251 21.012 11.2621 20.475 11.9251 20.475C12.5881 20.475 13.1251 21.012 13.1251 21.675C13.1251 22.338 12.5881 22.875 11.9251 22.875C11.2621 22.875 10.7251 22.338 10.7251 21.675Z" fill="white"/><path d="M23.9987 20.775H15.3737V22.275H23.9987V20.775Z" fill="white"/><path d="M5.99939 16.35L6.00014 21.9C6.00014 22.1071 6.16806 22.275 6.37514 22.275H8.32514C8.53221 22.275 8.70014 22.1071 8.70014 21.9V21.675V21.6637C8.70614 19.8877 10.1476 18.45 11.9251 18.45C12.8401 18.45 13.6659 18.831 14.2524 19.4422L14.2494 12.525H8.02589C7.41464 12.525 6.87989 12.9352 6.72164 13.5247L6.04589 16.0005C6.01514 16.1145 5.99939 16.2322 5.99939 16.35ZM11.9994 13.2C12.2064 13.2 12.3744 13.368 12.3744 13.575V15.75C12.3744 15.957 12.2064 16.125 11.9994 16.125H7.19939C6.99239 16.125 6.82439 15.957 6.82439 15.75C6.82439 15.717 6.82889 15.6847 6.83714 15.6525L7.37339 13.6447C7.44389 13.3822 7.67849 13.2 7.94999 13.2H11.9994Z" fill="white"/><path d="M24 15.45H18.3C18.0929 15.45 17.925 15.2821 17.925 15.075C17.925 14.8679 18.0929 14.7 18.3 14.7H24V13.95H18.3C18.0929 13.95 17.925 13.7821 17.925 13.575C17.925 13.3679 18.0929 13.2 18.3 13.2H24L24.0001 11.175H15.7501C15.543 11.175 15.3751 11.3429 15.3751 11.55C15.3751 14.175 15.3751 20.025 15.3751 20.025L24.0001 20.0208L24 15.45Z" fill="white"/></svg>

<svg class="color-immutable" width="30" height="30" viewBox="0 0 30 30" fill="none" xmlns="http://www.w3.org/2000/svg"><g clip-path="url(#a)"><path d="M30.002 0h-30v30h30V0Z" fill="#2D327D"/><path d="M25.502 3c.825 0 1.5.675 1.5 1.5v21c0 .825-.675 1.5-1.5 1.5h-21c-.825 0-1.5-.675-1.5-1.5v-21c0-.825.675-1.5 1.5-1.5h21Zm0-.375h-21A1.877 1.877 0 0 0 2.627 4.5v21c0 1.034.841 1.875 1.875 1.875h21a1.877 1.877 0 0 0 1.875-1.875v-21a1.877 1.877 0 0 0-1.875-1.875Z" fill="#fff"/><path d="M9.6 21.675c0 .572.206 1.095.55 1.5a2.317 2.317 0 0 0 1.775.825c.713 0 1.35-.32 1.776-.825a2.325 2.325 0 1 0-4.101-1.5Zm1.125 0a1.2 1.2 0 1 1 2.4 0 1.2 1.2 0 0 1-2.4 0ZM23.999 20.775h-8.625v1.5h8.625v-1.5Z" fill="#fff"/><path d="M6 16.35v5.55c0 .207.168.375.375.375h1.95A.375.375 0 0 0 8.7 21.9V21.664a3.225 3.225 0 0 1 5.552-2.222l-.003-6.917H8.026a1.35 1.35 0 0 0-1.304 1L6.046 16c-.03.114-.047.232-.047.35Zm6-3.15c.206 0 .374.168.374.375v2.175a.375.375 0 0 1-.375.375H7.2a.375.375 0 0 1-.362-.473l.536-2.007a.597.597 0 0 1 .577-.445H12ZM24 15.45h-5.7a.375.375 0 0 1 0-.75H24v-.75h-5.7a.375.375 0 0 1 0-.75H24v-2.025h-8.25a.375.375 0 0 0-.375.375v8.475L24 20.021V15.45Z" fill="#fff"/></g><defs><clipPath id="a"><path fill="#fff" d="M0 0h30v30H0z"/></clipPath></defs></svg>
